X:1
T:James Gibb editions
T:O mighty God, Creator, King - Barnby
%%score [ ( 1 2 ) ( 3 4 ) ]
L:1/8
Q:1/4=84
M:4/4
K:D
V:1 treble nm="Midi_74"
V:2 treble 
V:3 bass nm="Midi_74"
V:4 bass 
V:1
"^Godfrey Thring\n(1823-1903)""^O mighty God, Creator, King""^Joseph Barnby\n(1838-96)" A2 | %1
"^Woodleigh (88. 88. 88. 87)" d2 A2 F2 E2 | E3 D D2 || D2 | B2 B2 c2 d2 | e2 d2 c2 || A2 | %7
 d2 A2 F2 E2 | E3 D D2 ||[M:4/4] G2 | F2 ^E2 c2 F^G | A2 ^G2 F2 || F2 | A3 G G2 F2 | F2 E2 A2 || %15
 F2 | B2 A2 G2 B2 | e2 d2 c2 || A2 | f2"^1" e2 d2 c2 | B2 A2 (G2 E2) || D2 CD F2 EF | E4 D4 || %23
 G4 F4 |] %24
V:2
 A2 | F2 D2 D2 C2 | C3 D D2 || D2 | D2 D2 G2 G2 | G2 F2 E2 || A2 | F2 D2 D2 C2 | C3 D D2 || %9
[M:4/4] D2 | C2 C2 C2 D2 | C2 ^E2 F2 || F2 | C3 C C2 D2 | C2 C2 D2 || =C2 | B,2 ^D2 E2 E2 | %17
 G2 F2 E2 || A2 | F2 G2 F2 E2 | D2 ^D2 (E2 B,2) || A,2 A,A, D2 C2 | C4 D4 || D4 D4 |] %24
V:3
 A,2 | A,2 A,2 A,2 G,2 | G,3 F, F,2 || F,2 | G,2 G,2 G,2 B,2 | A,2 A,2 A,2 || A,2 | %7
 A,2 A,2 A,2 G,2 | G,3 F, F,2 ||[M:4/4] B,2 | A,2 ^G,2 F,2 F,2 | F,2 B,2 A,2 || F,2 | %13
 A,3 A, A,2 A,2 | A,2 A,2 A,2 || A,2 | F,2 B,2 B,2 G,2 | A,2 A,2 A,2 || %18
"^1. O mighty God, Creator, King,\nWho rulest over sea and land,\nAnd dost the ocean deeps sustain\nWithin the hollow of Thine hand;\nO hear us as we cry to Thee\nFor those who traverse land or sea,\nThat they may now and ever be\nSafe in Thy holy keeping.\n\n2. And Thou who cam'st on earth to breathe\nThe breath of peace o'er heath and hill,\nDidst walk upon the angry wave,\nAnd bid the troubled sea, \"Be still;\"\nO hear us as we cry to Thee\nFor those who traverse land or sea,\nThat they may now and ever be\nSafe in Thy holy keeping.\n" A,2 | %19
 A,2 C2 D2 ^A,2 | B,2 B,2 (B,2 G,2) || %21
"^3. Wherever danger threatens, then,\nO Holy Spirit, be Thou there,\nAnd breathe into each trembling heart\nThe will and power of fervent prayer\nThat we and all who cry to Thee\nWith those who traverse land or sea,\nBoth now and evermore may be\nSafe in Thy holy keeping.\n" F,2 E,F, A,2 G,A, | %22
 G,4 F,4 || B,4 A,4 |] %24
V:4
 A,2 | D,2 F,2 A,2 A,,2 | D,3 D, D,2 || D,2 | G,2 G,2 E,2- D,2 | C,2 D,2 A,,2 || A,2 | %7
 D,2 F,2 A,2 A,,2 | B,,3 B,, B,,2 ||[M:4/4] B,,2 | C,2 B,,2 A,,2 B,,2 | C,2 C,2 F,2 || F,2 | %13
 E,3 E, E,2 F,2 | G,2 G,2 F,2 || D,2 | ^D,2 B,,2 E,2 =D,2 | C,2 D,2 A,,2 || A,2 | %19
 D,2 A,,2 B,,2 F,,2 | G,,2 B,,2 (E,2 G,,2) || A,,2 A,,A,, A,,2 A,,2 | A,,4 D,4 || G,,4 D,4 |] %24

